svgs/sharp-regular/square-g.svg

<svg xmlns="http://www.w3.org/2000/svg" viewBox="0 0 448 512"><!--! Font Awesome Pro 6.6.0 by @fontawesome - https://fontawesome.com License - https://fontawesome.com/license (Commercial License) Copyright 2024 Fonticons, Inc. --><path d="M48 80l0 352 352 0 0-352L48 80zM0 32l48 0 352 0 48 0 0 48 0 352 0 48-48 0L48 480 0 480l0-48L0 80 0 32zM144 256c0 44.2 35.8 80 80 80c35.8 0 66.1-23.5 76.3-56L248 280l-24 0 0-48 24 0 80 0 24 0 0 24c0 70.7-57.3 128-128 128s-128-57.3-128-128s57.3-128 128-128c32.8 0 62.7 12.3 85.3 32.6l-32 35.8C263.2 183.7 244.5 176 224 176c-44.2 0-80 35.8-80 80z"/></svg>

<svg xmlns="http://www.w3.org/2000/svg" viewBox="0 0 448 512"><!--! Font Awesome Pro 6.4.0 by @fontawesome - https://fontawesome.com License - https://fontawesome.com/license (Commercial License) Copyright 2023 Fonticons, Inc. --><path d="M48 80V432H400V80H48zM0 32H48 400h48V80 432v48H400 48 0V432 80 32zM144 256c0 44.2 35.8 80 80 80c35.8 0 66.1-23.5 76.3-56H248 224V232h24 80 24v24c0 70.7-57.3 128-128 128s-128-57.3-128-128s57.3-128 128-128c32.8 0 62.7 12.3 85.3 32.6l-32 35.8C263.2 183.7 244.5 176 224 176c-44.2 0-80 35.8-80 80z"/></svg>
